X:73
%%etbk:tnset id:25,pos:2,rep:3x,ant:
%%etbk:wsite http://www.thesession.org/tunes/display/2271
%%etbk:pldat 2016-07-12T16:25,2016-03-17T18:47,2016-01-02T13:49,2015-08-16T14:43,2015-05-28T18:30,2015-05-26T18:34,2015-04-23T18:04,2015-04-21T17:20,2015-02-21T17:34,2015-02-17T17:47,2015-02-16T19:08,2015-01-20T18:08,2014-11-15T16:15,2014-09-16T18:08,2014-09-13T13:54,2014-05-20T17:11,2014-05-14T15:35,2014-05-06T16:47,2014-04-30T17:37,2014-04-01T17:25,2014-03-21T16:14,2014-02-11T16:14,2013-08-29T16:49,2013-08-27T18:27,2013-05-23T18:57,2013-05-12T18:41,2013-05-01T16:37
T: Humours Of Castlefin, The
Z: Piano Box Version by Martin Fleischmann
H: Created 2013-02-19 /  Last Modified 2013-02-19
M: 4/4
L: 1/8
R: reel
K: Edor
|: "em"!5!B!1!E !3!(3E!2!E!1!E !5!BEG!5!B | "D"!4!A2!1!DD !2!F!1!G!2!A!5!d | "em"!3!B!1!E !3!(3E!2!E!1!E !5!BFAF | "bm"!3!GBAF !1!EFGA |
"em"!5!B!1!E !3!(3E!2!E!1!E BEGB | "D"!4!A2!1!DD !2!F!1!G!2!A!5!d | "em"!5!B!1!E !3!(3E!2!E!1!E BFAF | "bm"!3!GBAF "em"!1!E4:|
|: "em"!1!B2 {g}!2!eB !2!egfe | "D"!1!defa afe!1!d | "em"!1!B2!2!e!1!e !1!efg!5!b | "bm"!4!agfa "em"g!1!ee!2!d |
"em"!1!B2 {g}!2!eB !2!egfe | "D"!1!defa af!1!d!3!f | "em"!1!efga !5!bagf | "bm"!1!e!4!gf!1!d "em"!2!e4:|


